X: 1134
T: Lovely Nancy
S: George Bush manuscript
M: 6/8
L: 1/8
K: D Major
|: f>e | 
d2 d2 d>f | e2 e2 e>g | f2 ba gf | e4 f>e | 
d2 d2 d>f | e2 e2 ba | ab af ef | d4 :|
|: f>g | 
a2 a2 ba | a4 f>g | a2 a2 bf | e4 f>e | 
d2 d2 af | e2 e2 g>b | ab af ef | d4 :|
